src/pos-icons/head-plus-outline.svg

<svg height="24" viewBox="0 0 24 24" width="24" xmlns="http://www.w3.org/2000/svg"><path d="m13 3c3.9 0 7 3.1 7 7 0 2.8-1.6 5.2-4 6.3v4.7h-7v-3h-1c-1.1 0-2-.9-2-2v-3h-1.5c-.4 0-.7-.5-.4-.8l1.9-2.5c.2-3.8 3.2-6.7 7-6.7m0-2c-4.6 0-8.4 3.4-8.9 7.9l-1.6 2.1c-.6.7-.7 1.7-.3 2.6.4.7 1 1.2 1.8 1.4v1c0 1.9 1.3 3.4 3 3.9v3.1h11v-5.5c2.5-1.6 4-4.4 4-7.5 0-5-4-9-9-9m4 9h-3v3h-2v-3h-3v-2h3v-3h2v3h3z"/></svg>

<?xml version="1.0" encoding="UTF-8"?><!DOCTYPE svg PUBLIC "-//W3C//DTD SVG 1.1//EN" "http://www.w3.org/Graphics/SVG/1.1/DTD/svg11.dtd"><svg xmlns="http://www.w3.org/2000/svg" xmlns:xlink="http://www.w3.org/1999/xlink" version="1.1" id="mdi-head-plus-outline" width="24" height="24" viewBox="0 0 24 24"><path d="M13 3C16.9 3 20 6.1 20 10C20 12.8 18.4 15.2 16 16.3V21H9V18H8C6.9 18 6 17.1 6 16V13H4.5C4.1 13 3.8 12.5 4.1 12.2L6 9.7C6.2 5.9 9.2 3 13 3M13 1C8.4 1 4.6 4.4 4.1 8.9L2.5 11C1.9 11.7 1.8 12.7 2.2 13.6C2.6 14.3 3.2 14.8 4 15V16C4 17.9 5.3 19.4 7 19.9V23H18V17.5C20.5 15.9 22 13.1 22 10C22 5 18 1 13 1M17 10H14V13H12V10H9V8H12V5H14V8H17V10Z" /></svg>
